X:1
T:Minuet in F
T:Minuet in F
T:K. 15m (Anh. 109b No. 4) 
T:W. A. Mozart
C:W. A. Mozart
%%score { 1 | ( 2 3 ) }
L:1/8
Q:1/4=95
M:3/4
K:F
V:1 treble nm="Piano" snm="Pno."
V:2 bass 
V:3 bass 
V:1
"^Minuet\n" (3FAB c2 c2 | (9:6:9cde fed cBA | AG (6:4:6dcB- BAG | TF2 C2 z2 | x2 (3F Ac (3f ac' | %5
 Tc'7/2 =b/4a/4 g2 | x2 (3F Ac (3f ac' | Tc'7/2 =b/4a/4 g2 | ^g/a/f/d/ ^f/=g/e/c/ e/=f/d/=B/ | %9
 c6 :: (3CEF G2 G2 | (9:6:9GA=B cBA GFE | (9:6:9A_Bc- cAB- BGA | TA2 G2 z2 | %14
 x2[I:staff +1] (3B,[I:staff -1] DF (3B df | Tf7/2 e/4d/4 c2 | %16
 x2[I:staff +1] (3B,[I:staff -1] DF (3B df | Tf7/2 e/4d/4 c2 | ^c/d/B/G/ =B/=c/A/F/ A/_B/G/E/ | %19
 [A,CF]6 :| %20
V:2
 [F,A,]4 [G,B,]2 | [A,C]6 | B,2 G,2 B,,2 | [A,,C,]2 [F,,F,]2 z2 | (3F, A,C x4 | [E,G,C]4 C,2 | %6
 (3F, A,C x4 | [E,G,C]4 C,2 | F,2 G,2 G,,2 | C,2 E,G, C2 :: [C,E,]4 [D,F,]2 | [E,G,]6 | %12
 F,2 G,2 F,2 | F,2 E,2 z2 | (3B,, D,F, x4 | [A,,C,F,]4 F,,2 | (3B,, D,F, x4 | [A,,C,F,]4 F,,2 | %18
 B,,2 C,2 C,,2 | F,,2 C,,2 F,,,2 :| %20
V:3
 x6 | x6 | x6 | x6 | x6 | x6 | x6 | x6 | x6 | x6 :: x6 | x6 | x6 | C,4 x2 | x6 | x6 | x6 | x6 | %18
 x6 | x6 :| %20

